!!!!SEGMENT: pl-kk--kk-i-40--007-003_palestrina-giovanni-pierluigi-da--missa-sacerdos-et-pontifex-sanctus.krn
!!!id: 16xx:1303
!!!COM: Palestrina, Giovanni Pierluigi da
!!!COM-rism: pe1904
!!!CDT: ~1525-1594/02/02
!!!CNT: Italian
!!!OTL: Missa Sacerdos et Pontifex – Sanctus
!!!PDT:
!!!SMS-siglum: PL-Kk
!!!SMS-shelfmark: Kk.I.40
!!!NIFC-rismID: 1001154493
!!!URL-scan: http://repozytorium.nifc.pl/skany/pl-kk-nut--i-40
!!!ONB-nifc: UWAGA: części Mszy: 1. Kyrie, 2. Et in terra, 3. Sanctus, 4. Benedictus, 5. Agnus Dei. Skan 0010-0011
!!!SMS-variant:
!!!SMS-altvar:
**kern	**text
*I"Baſso Ripieno.	*
*I'B rip	*
*clefF3	*
*k[b-]	*
*M2/1	*
*met(c|)	*
=1-	=1-
!LO:TX:t=P:problem:oddech/cezura na różnej wysokości:global	!
!LO:TX:t=P:problem:znaki: B- nad BB-	!
!LO:N:vis=00	!
00r	.
=2-	=2-
.	.
=3-	=3-
!LO:N:vis=00	!
00r	.
=4-	=4-
.	.
=5-	=5-
!LO:N:vis=00	!
00r	.
=6-	=6-
.	.
=7-	=7-
!LO:N:vis=00	!
00r	.
=8-	=8-
.	.
=9-	=9-
!LO:TX:t=P:problem:kreska pseudotaktowa	!
1r	.
0G	San-
=10-	=10-
.	.
*lig	*
1G	-ctus
=11-	=11-
1F	.
*Xlig	*
*2\right	*
2.G\	San-
!LO:TX:t=P:problem:kreska pseudotaktowa	!
4A\	.
=12-	=12-
4B-\	.
4c\	.
1B-	.
4A\	.
4G\	.
=13-	=13-
1A	-ctus
!LO:TX:t=P:problem:kreska pseudotaktowa	!
1G,	.
=14-	=14-
1r	.
2r	.
1d\	San-
=15-	=15-
.	.
!LO:TX:t=P:problem:kreska pseudotaktowa	!
2c\	.
1B-	.
=16-	=16-
1A	.
2B-\	.
!LO:TX:t=P:problem:kreska pseudotaktowa	!
2F\	.
=17-	=17-
1G	.
1A	-ctus
=18-	=18-
!LO:TX:t=P:problem:kreska pseudotaktowa	!
1D,	.
2BB-/	San-
2C/	.
=19-	=19-
2.D/	.
!LO:TX:t=P:problem:kreska pseudotaktowa	!
4E/	.
1F	.
=20-	=20-
!LO:TX:t=P:problem:kreska pseudotaktowa	!
1BB-	-ctus
00r	.
=21-	=21-
.	.
=22-	=22-
.	.
00r	.
=23-	=23-
.	.
=24-	=24-
.	.
00r	.
=25-	=25-
.	.
=26-	=26-
*	*
!LO:TX:t=P:problem:kreska pseudotaktowa	!
1r	.
=27-	=27-
2r	.
1F	Do-
2G\	-mi-
=28-	=28-
!LO:TX:t=P:problem:kreska pseudotaktowa	!
1A,	-n(us)
!LO:LB:g=original	!
2F\	De-
!LO:TX:t=P:problem:kreska pseudotaktowa	!
2G\	.
=29-	=29-
2A\	.
2A,\	-us
2B-\	Sab-
2B-\	-ba-
=30-	=30-
*lig	*
1A	-oth
!LO:TX:t=P:problem:kreska pseudotaktowa	!
1D	.
*Xlig	*
=31-	=31-
1.BB-	Do-
2C/	-mi-
=32-	=32-
!LO:TX:t=P:problem:kreska pseudotaktowa	!
1D,	-n(us)
2BB-/	De-
2C/	-us
=33-	=33-
1D,	.
2.E-X/	Sab-
4E-/	-ba-
=34-	=34-
!LO:TX:a:t=4	!
!LO:TX:t=P:problem:kreska pseudotaktowa	!
00D/	-oth
=35-	=35-
.	.
=36-	=36-
2r	.
2G\	Ple-
2G,\	-ni
!LO:TX:t=P:problem:kreska pseudotaktowa	!
2G\	sunt
=37-	=37-
1d	cae-
2d,\	-li
!LO:TX:t=P:problem:kreska pseudotaktowa	!
2c\	et
=38-	=38-
2.B-\	ter-
8A\L	.
8G\J	.
2F\	.
2G\	.
=39-	=39-
1E-X	.
!LO:TX:t=P:problem:kreska pseudotaktowa	!
0D,	-ra
=40-	=40-
.	.
00r	.
=41-	=41-
.	.
=42-	=42-
.	.
!LO:TX:t=P:problem:kreska pseudotaktowa	!
0r	.
=43-	=43-
.	.
2r	.
1G\	glo-
=44-	=44-
.	.
!LO:TX:t=P:problem:kreska pseudotaktowa	!
2F\	-ri-
!LO:LB:g=original	!
2.G\	-â
!LO:TX:t=P:problem:kreska pseudotaktowa	!
4A\	.
=45-	=45-
2B-\	Tu-
!LO:TX:t=P:problem:kreska pseudotaktowa	!
[<2c\	.
2c]	.
2B-\	.
=46-	=46-
1A	.
*lig	*
1G	.
=47-	=47-
1A	.
*Xlig	*
!LO:TX:t=P:problem:kreska pseudotaktowa	!
1D,	-â;
=48-	=48-
0r	.
=49-	=49-
!LO:TX:t=P:problem:kreska pseudotaktowa	!
1r	.
2r	.
2D/	O-
=50-	=50-
2D/	-san-
!LO:TX:t=P:problem:kreska pseudotaktowa	!
2C/	-na
2.D/	in
4Eny/	ex-
=51-	=51-
2F/	-cel-
!LO:TX:t=P:problem:kreska pseudotaktowa	!
[<2G\	.
2G]	.
2F/	.
=52-	=52-
1E-X	-sis
!LO:TX:t=P:problem:kreska pseudotaktowa	!
1D,	.
=53-	=53-
0r	.
=54-	=54-
!LO:TX:t=P:problem:kreska pseudotaktowa	!
1r	.
1D	O-
=55-	=55-
2E-X/	-san-
!LO:TX:t=P:problem:kreska pseudotaktowa	!
2C/	-na
!LO:TX:t=P:problem:kreska pseudotaktowa	!
1G	in
=56-	=56-
1.C	ex-
2G\	.
=57-	=57-
0C	-cel-
=58-	=58-
0G;>	-ſis.
==	==
*-	*-
!!!RDF**kern: > = above
!!!RDF**kern: < = below
!!!EED: Antoni Szymański
!!!EST: 2021-08-01
!!!ENC: Tomasz Grochalski
!!!END: 2021-07-04
